src/assets/images/404.svg

<svg height="100" viewBox="0 0 300 100" width="300" xmlns="http://www.w3.org/2000/svg"><g fill="none" fill-rule="evenodd"><g transform="translate(98.895812 4.072446)"><path d="m57.2342109 44.6225887c.7245914 3.3535393-1.4066431 6.6574491-4.7601824 7.3834585-3.3535394.7245914-6.6574492-1.4066432-7.3834586-4.7601825-.7231734-3.3535394 1.4066432-6.6574492 4.7601825-7.3834585 3.3535394-.7245914 6.6574492 1.4066431 7.3834585 4.7601825" fill="#675a5e"/><g stroke="#675a5e" stroke-linecap="round" stroke-width="5"><path d="m68.8829745 39.7163535c11.7310068 24.0660761 14.1515107 46.7453608 5.2607319 51.2786654-9.1687042 4.6765212-26.8878703-11.708319-39.5802723-36.5968276-12.692402-24.8870905-15.5496459-48.85107154-6.3823596-53.52617482 3.9916335-2.03764738 9.6054442-.07798928 15.7183863 4.83249984"/><path d="m10.833421 55.0802431c-6.85454936-3.5591475-10.84618288-7.8485583-10.615051-12.2797678.53458112-10.2775701 23.5853785-17.4313147 51.4842735-15.9807139 27.898895 1.4520187 50.0818845 10.9596218 49.5473035 21.2371919-.231132 4.4312095-4.6467438 8.2824623-11.8316842 11.1113464"/><path d="m40.8777304 83.3038572c-7.4912255 5.4082025-14.1586006 7.3834585-18.3289005 4.6779392-8.6327051-5.6024668-3.3039098-29.1410517 11.9025833-52.5761235 15.206493-23.4350718 34.5322384-37.8942857 43.1635255-32.29040092 4.0129033 2.60342421 5.0097482 9.08220702 3.3989149 17.62416092"/></g></g><path d="m48.72 83.48c0 1.68 1.32 3 3 3s3-1.32 3-3v-18h11.4c1.44 0 2.76-1.2 2.76-2.64s-1.32-2.76-2.76-2.76h-11.4v-55.68c0-2.04-1.44-3.48-3.48-3.48-1.44 0-2.28.6-3 1.56l-46.32 57.24c-.72.96-.96 1.8-.96 2.52 0 1.92 1.32 3.24 3.24 3.24h44.52zm-40.08-23.4 40.08-49.68v49.68zm227.76 23.4c0 1.68 1.32 3 3 3s3-1.32 3-3v-18h11.4c1.44 0 2.76-1.2 2.76-2.64s-1.32-2.76-2.76-2.76h-11.4v-55.68c0-2.04-1.44-3.48-3.48-3.48-1.44 0-2.28.6-3 1.56l-46.32 57.24c-.72.96-.96 1.8-.96 2.52 0 1.92 1.32 3.24 3.24 3.24h44.52zm-40.08-23.4 40.08-49.68v49.68z" fill="#675a5e" transform="translate(20 6)"/></g></svg>

<?xml version="1.0" encoding="UTF-8" standalone="no"?>
<svg width="300px" height="100px" viewBox="0 0 300 100" version="1.1" xmlns="http://www.w3.org/2000/svg" xmlns:xlink="http://www.w3.org/1999/xlink">
    <defs></defs>
    <g stroke="none" stroke-width="1" fill="none" fill-rule="evenodd">
        <g transform="translate(-68.000000, -5.000000)">
            <g transform="translate(166.895812, 9.072446)">
                <path d="M57.2342109,44.6225887 C57.9588023,47.976128 55.8275678,51.2800378 52.4740285,52.0060472 C49.1204891,52.7306386 45.8165793,50.599404 45.0905699,47.2458647 C44.3673965,43.8923253 46.4972131,40.5884155 49.8507524,39.8624062 C53.2042918,39.1378148 56.5082016,41.2690493 57.2342109,44.6225887" fill="#675A5E"></path>
                <path d="M68.8829745,39.7163535 C80.6139813,63.7824296 83.0344852,86.4617143 74.1437064,90.9950189 C64.9750022,95.6715401 47.2558361,79.2866999 34.5634341,54.3981913 C21.8710321,29.5111008 19.0137882,5.54711976 28.1810745,0.872016483 C32.172708,-1.1656309 37.7865187,0.794027196 43.8994608,5.70451632" stroke="#675A5E" stroke-width="5" stroke-linecap="round"></path>
                <path d="M10.833421,55.0802431 C3.97887164,51.5210956 -0.0127618834,47.2316848 0.218370004,42.8004753 C0.752951119,32.5229052 23.8037485,25.3691606 51.7026435,26.8197614 C79.6015385,28.2717801 101.784528,37.7793832 101.249947,48.0569533 C101.018815,52.4881628 96.6032032,56.3394156 89.4182628,59.1682997" stroke="#675A5E" stroke-width="5" stroke-linecap="round"></path>
                <path d="M40.8777304,83.3038572 C33.3865049,88.7120597 26.7191298,90.6873157 22.5488299,87.9817964 C13.9161248,82.3793296 19.2449201,58.8407447 34.4514132,35.4056729 C49.6579062,11.9706011 68.9836516,-2.4886128 77.6149387,3.11527198 C81.627842,5.71869619 82.6246869,12.197479 81.0138536,20.7394329" stroke="#675A5E" stroke-width="5" stroke-linecap="round"></path>
            </g>
            <g transform="translate(88.000000, 11.000000)" fill="#675A5E">
                <path d="M48.72,83.48 C48.72,85.16 50.04,86.48 51.72,86.48 C53.4,86.48 54.72,85.16 54.72,83.48 L54.72,65.48 L66.12,65.48 C67.56,65.48 68.88,64.28 68.88,62.84 C68.88,61.4 67.56,60.08 66.12,60.08 L54.72,60.08 L54.72,4.4 C54.72,2.36 53.28,0.92 51.24,0.92 C49.8,0.92 48.96,1.52 48.24,2.48 L1.92,59.72 C1.2,60.68 0.96,61.52 0.96,62.24 C0.96,64.16 2.28,65.48 4.2,65.48 L48.72,65.48 L48.72,83.48 Z M8.64,60.08 L48.72,10.4 L48.72,60.08 L8.64,60.08 Z M236.4,83.48 C236.4,85.16 237.72,86.48 239.4,86.48 C241.08,86.48 242.4,85.16 242.4,83.48 L242.4,65.48 L253.8,65.48 C255.24,65.48 256.56,64.28 256.56,62.84 C256.56,61.4 255.24,60.08 253.8,60.08 L242.4,60.08 L242.4,4.4 C242.4,2.36 240.96,0.92 238.92,0.92 C237.48,0.92 236.64,1.52 235.92,2.48 L189.6,59.72 C188.88,60.68 188.64,61.52 188.64,62.24 C188.64,64.16 189.96,65.48 191.88,65.48 L236.4,65.48 L236.4,83.48 Z M196.32,60.08 L236.4,10.4 L236.4,60.08 L196.32,60.08 Z"></path>
            </g>
        </g>
    </g>
</svg>
